X:112
T:I would that the wars - Fone
%%VWML:SBG-1-2-826-0
F:http://www.vwml.org/record/SBG/1/2/826
Z:Original Sibelius transcriptions by M. & S. Graebe
M:3/4
I:linebreak $
K:Eb
V:1 treble nm="P1"
V:1
 B, | E E E | e3/2 d/ c | B A B | G2 B | A G A | B/G/ E e | B G F |$ E2 B | c c c | G2 B | c c c | %12
 G2 G/A/ | B G B | A G F | E E E/G/ |$ !fermata!e3/2 d/ c | B G/B/ B/G/ | E G B | A G B/A/ | %20
 G2 (3E/G/B/ | c2 A/F/ | E2 x | %23

